Origami/48x48/apps/photocollage.svg

<svg width="48" height="48" version="1" xmlns="http://www.w3.org/2000/svg">
 <path d="m4 42v1c0 1.108 0.892 2 2 2h36c1.108 0 2-0.892 2-2v-1c0 1.108-0.892 2-2 2h-36c-1.108 0-2-0.892-2-2z" opacity=".2"/>
 <path d="m6 4c-1.108 0-2 0.892-2 2v12h24v-14h-22z" style="fill:#ffc129"/>
 <path d="m28 4v14h16v-12c0-1.108-0.892-2-2-2h-14z" style="fill:#5fb319"/>
 <path d="m20 19v25h22c1.108 0 2-0.892 2-2v-23h-24z" style="fill:#e74b4b"/>
 <path d="m4 19v23c0 1.108 0.892 2 2 2h13v-25h-15z" style="fill:#35abe4"/>
 <path d="m4 7v-1c0-1.108 0.892-2 2-2h36c1.108 0 2 0.892 2 2v1c0-1.108-0.892-2-2-2h-36c-1.108 0-2 0.892-2 2z" fill="#fff" opacity=".2"/>
 <rect transform="rotate(90)" x="16" y="-22" width="28" height="4" style="fill:#ffffff"/>
 <rect x="4" y="17" width="40" height="4" style="opacity:.2"/>
 <rect x="4" y="16" width="40" height="4" style="fill:#ffffff"/>
 <rect transform="rotate(90)" x="4" y="-30" width="16" height="4" style="fill:#ffffff"/>
</svg>

<svg xmlns="http://www.w3.org/2000/svg" width="48" height="48" version="1">
 <path opacity=".2" d="m4 42v1c0 1.108 0.892 2 2 2h36c1.108 0 2-0.892 2-2v-1c0 1.108-0.892 2-2 2h-36c-1.108 0-2-0.892-2-2z"/>
 <path style="fill:#ffc129" d="M 6,4 C 4.892,4 4,4.892 4,6 L 4,18 28,18 28,4 6,4 Z"/>
 <path style="fill:#5fb319" d="M 28 4 L 28 18 L 44 18 L 44 6 C 44 4.892 43.108 4 42 4 L 28 4 z"/>
 <path style="fill:#e74b4b" d="M 20 19 L 20 44 L 42 44 C 43.108 44 44 43.108 44 42 L 44 19 L 20 19 z"/>
 <path style="fill:#35abe4" d="M 4 19 L 4 42 C 4 43.108 4.892 44 6 44 L 19 44 L 19 19 L 4 19 z"/>
 <path fill="#fff" opacity=".2" d="m4 7v-1c0-1.108 0.892-2 2-2h36c1.108 0 2 0.892 2 2v1c0-1.108-0.892-2-2-2h-36c-1.108 0-2 0.892-2 2z"/>
 <rect style="fill:#ffffff" width="28" height="4" x="16" y="-22" transform="matrix(0,1,-1,0,0,0)"/>
 <rect style="opacity:0.2" width="40" height="4" x="4" y="17"/>
 <rect style="fill:#ffffff" width="40" height="4" x="4" y="16"/>
 <rect style="fill:#ffffff" width="16" height="4" x="4" y="-30" transform="matrix(0,1,-1,0,0,0)"/>
</svg>
